X: 152
T: Da qiuqian
L: 1/8
M: 3/4
K: E
c ^Bc2- [I:setbarnb 1]| 
c^B2c | 
c ^B c =B | 
c ^AB4 | 
[M:2/4]GB2c | 
G B G F | 
G> F G3/ F/ | 
C2E2 | 
[M:3/4]E> CB,4 | 
[M:2/4]E> CE2- | 
E^B2c | 
^B c B c | 
d> c d c | 
^B c B c | 
^B c=B2 | 
^B c B c | 
^B c=B2 | 
^B cB2 | 
G cB2 | 
^B c B c | 
^B c=B2 | 
GB2c | 
G B G F | 
G> F G F | 
C2E2 | 
E> CB,2 | 
F CE2 | 
D> CE2 | 
G G F G | 
e CE4 |]

@@@ Tune index: 9026
